X:1
T:Overflowing Ever
T:Overflowing Ever
T:Robert Lowry
T:Ellen French Colburn Husted, 1870
T:Public Domain Courtesy of the Cyber Hymnal™
C:Robert Lowry
Z:Public Domain
Z:Courtesy of the Cyber Hymnal™
%%score 1 ( 2 3 )
L:1/8
Q:1/4=102
M:6/8
K:Bb
V:1 treble 
V:2 bass 
V:3 bass 
V:1
 [DF]2 [DF] [DB]2 [FA] | [EG]2 [EG] [Gc]3 | [FB]2 [FA] [EG]2 [EA] | [EG]3 [DF]3 | %4
w: 1.~Lo! a fount- ain|full and free,|O- ver- flow- ing|ev- er;|
w: 2.~List the mur- mur|that it speaks,|O- ver- flow- ing|ev- er;|
w: 3.~Bless- èd fount! the|pur- est known,|O- ver- flow- ing|ev- er;|
 [DF]2 [DF] [DB]2 [FA] | [EG]2 [EG] [Gc]3 | [FB]2 [FA] [Fd]2 [Ec] | [DB]3 [DB]3 | %8
w: Faint- ing heart, it|is for thee,|O- ver- flow- ing|ev- er;|
w: On the soul in|song it breaks,|O- ver- flow- ing|ev- er;|
w: Stream of life from|God’s own throne,|O- ver- flow- ing|ev- er;|
 [Fd]2 [Fd] ([Fd][Ec])[DB] | [Fc]2 [Fc] [Fc]3 | [Ec]2 [Ec] ([Ec][DB])[EA] | [DB]2 [DB] [DB]3 || %12
w: Gush- ing, spark- * ling,|ne- ver still,|Taste its sweet- * ness,|drink thy fill.|
w: Sing- ing, sooth- * ing|souls to ease,|Mu- sic of * all|mel- o- dies.|
w: Sac- red blood * for|sin- ners spilt,|This can cleanse * a-|way thy guilt.|
"^Refrain" [Fd]3 [DB]3 | [DF]3 [B,D]3 | [DF]2 [FB] [EA]2 [DB] | [Ec]3 [EG]3 | [Ec]3 [Fd]3 | %17
w: |||||
w: O- ver-|flow- ing,|o- ver- flow- ing|ev- er,|O- ver-|
w: |||||
 [Ge]3 [Ec]3 | [DB]2 [DB] [Fd]2 [Ec] | [DB]6 |] %20
w: |||
w: flow- ing,|flow- ing now for|thee.|
w: |||
V:2
 [B,,B,]2 [B,,B,] [B,,F,]2 [D,B,] | [E,B,]2 [E,B,] [C,E]3 | [F,D]2 [F,C] [F,B,]2 [F,C] | %3
 [B,,B,]3 [B,,B,]3 | [B,,B,]2 [B,,B,] [B,,F,]2 [D,B,] | [E,B,]2 [E,B,] [C,E]3 | %6
 [F,D]2 [F,C] [F,A,]2 [F,A,] | [B,,B,]3 [B,,B,]3 | B,2 B, B,2 B, | [F,A,]2 [F,A,] [F,A,]3 | %10
 [F,A,]2 [F,A,] ([F,A,]B,)[F,C] | [B,,B,]2 [B,,B,] [B,,B,]3 || [B,,B,]3 [B,,F,]3 | %13
 [B,,B,]3 [B,,F,]3 | [B,,B,]2 [D,B,] [C,F,]2 [B,,F,] | [E,G,]3 [E,B,]3 | [E,G,]3 [D,=B,]3 | %17
 [C,C]3 [E,G,]3 | F,2 F, [F,B,]2 [F,A,] | [B,,B,]6 |] %20
V:3
 x6 | x6 | x6 | x6 | x6 | x6 | x6 | x6 | B,2 B, B,2 B, | x6 | x6 | x6 || x6 | x6 | x6 | x6 | x6 | %17
 x6 | F,2 F, x3 | x6 |] %20

